exported-svg/instagram.svg

<svg height="24" viewBox="0 0 24 24" width="24" xmlns="http://www.w3.org/2000/svg"><path d="m7.5 2h10c3.0375661 0 5.5 2.46243388 5.5 5.5v10c0 3.0375661-2.4624339 5.5-5.5 5.5h-10c-3.03756612 0-5.5-2.4624339-5.5-5.5v-10c0-3.03756612 2.46243388-5.5 5.5-5.5zm0 1c-2.48528137 0-4.5 2.01471863-4.5 4.5v10c0 2.4852814 2.01471863 4.5 4.5 4.5h10c2.4852814 0 4.5-2.0147186 4.5-4.5v-10c0-2.48528137-2.0147186-4.5-4.5-4.5zm9.4945917 8.7966583c.2847628 1.920343-.6940959 3.806825-2.4281701 4.679633s-3.8324002.5351589-5.20513603-.8375769c-1.37273582-1.3727358-1.71038489-3.4710618-.8375769-5.205136.87280798-1.73407421 2.75929003-2.71293288 4.67963303-2.42817014 1.9608489.29076925 3.5004808 1.83040114 3.79125 3.79125004zm-.9891834.1466834c-.2261539-1.5251046-1.4236454-2.7225961-2.94875-2.94874996-1.4936002-.22148213-2.960864.53985239-3.63971465 1.88857676-.67885066 1.3487244-.41623471 2.9807557.65144865 4.0484392 1.0676835 1.0676834 2.6997148 1.3302993 4.0484392.6514487 1.3487244-.6788507 2.1100589-2.1461145 1.8885768-3.6397147zm2.4945917-3.9433417c-.5522847 0-1-.44771525-1-1s.4477153-1 1-1 1 .44771525 1 1-.4477153 1-1 1z"/></svg>

<?xml version="1.0" encoding="UTF-8"?>
<svg width="24px" height="24px" viewBox="0 0 24 24" version="1.1" xmlns="http://www.w3.org/2000/svg" xmlns:xlink="http://www.w3.org/1999/xlink">
    <!-- Generator: Sketch 55.2 (78181) - https://sketchapp.com -->
    <title>instagram</title>
    <desc>Created with Sketch.</desc>
    <g id="instagram" stroke="none" stroke-width="1" fill="none" fill-rule="evenodd">
        <path d="M7.5,2 L17.5,2 C20.5375661,2 23,4.46243388 23,7.5 L23,17.5 C23,20.5375661 20.5375661,23 17.5,23 L7.5,23 C4.46243388,23 2,20.5375661 2,17.5 L2,7.5 C2,4.46243388 4.46243388,2 7.5,2 Z M7.5,3 C5.01471863,3 3,5.01471863 3,7.5 L3,17.5 C3,19.9852814 5.01471863,22 7.5,22 L17.5,22 C19.9852814,22 22,19.9852814 22,17.5 L22,7.5 C22,5.01471863 19.9852814,3 17.5,3 L7.5,3 Z" id="Rectangle-path" fill="#000000" fill-rule="nonzero"></path>
        <path d="M16.9945917,11.7966583 C17.2793545,13.7170013 16.3004958,15.6034833 14.5664216,16.4762913 C12.8323474,17.3490993 10.7340214,17.0114502 9.36128557,15.6387144 C7.98854975,14.2659786 7.65090068,12.1676526 8.52370867,10.4335784 C9.39651665,8.69950419 11.2829987,7.72064552 13.2033417,8.00540826 C15.1641906,8.29617751 16.7038225,9.8358094 16.9945917,11.7966583 Z M16.0054083,11.9433417 C15.7792544,10.4182371 14.5817629,9.2207456 13.0566583,8.99459174 C11.5630581,8.77310961 10.0957943,9.53444413 9.41694365,10.8831685 C8.73809299,12.2318929 9.00070894,13.8639242 10.0683923,14.9316077 C11.1360758,15.9992911 12.7681071,16.261907 14.1168315,15.5830564 C15.4655559,14.9042057 16.2268904,13.4369419 16.0054083,11.9433417 Z M18.5,8 C17.9477153,8 17.5,7.55228475 17.5,7 C17.5,6.44771525 17.9477153,6 18.5,6 C19.0522847,6 19.5,6.44771525 19.5,7 C19.5,7.55228475 19.0522847,8 18.5,8 Z" id="Combined-Shape" fill="#000000" fill-rule="nonzero"></path>
    </g>
</svg>
